X: 1066
T: Jackson's Maid
R:double jig
N:"collected by F.O'Neill"
B:O'Neill's 1066
Z:Transcribed by henrik.norbeck@mailbox.swipnet.se
M:6/8
L:1/8
K:G
D|DGA B2d|cAG FGA|BdB AFD|GBG AFD|
DGA Bcd|cAG FGA|(B/c/d)B AFD|DGG G2:|
(B/c/)|ded dcB|cdc cBc|ded =fef|dgg g2a|
bag =fed|cAG FGA|(B/c/d)B AFD|DGG G2:|


